assets/img/menu.svg

<svg fill="none" height="463" viewBox="0 0 512 463" width="512" xmlns="http://www.w3.org/2000/svg"><g fill="#f3960e"><path d="m462.452 0h-412.9036c-27.2516 0-49.5484 22.2968-49.5484 49.5484s22.2968 49.5484 49.5484 49.5484h412.9036c27.251 0 49.548-22.2968 49.548-49.5484s-22.297-49.5484-49.548-49.5484z"/><path d="m462.452 181.677h-412.9036c-27.2516 0-49.5484 22.297-49.5484 49.549 0 27.251 22.2968 49.548 49.5484 49.548h412.9036c27.251 0 49.548-22.297 49.548-49.548 0-27.252-22.297-49.549-49.548-49.549z"/><path d="m462.452 363.355h-412.9036c-27.2516 0-49.5484 22.297-49.5484 49.548 0 27.252 22.2968 49.549 49.5484 49.549h412.9036c27.251 0 49.548-22.297 49.548-49.549 0-27.251-22.297-49.548-49.548-49.548z"/></g></svg>

<svg width="512" height="463" viewBox="0 0 512 463" fill="none" xmlns="http://www.w3.org/2000/svg">
<path d="M462.452 0H49.5484C22.2968 0 0 22.2968 0 49.5484C0 76.8 22.2968 99.0968 49.5484 99.0968H462.452C489.703 99.0968 512 76.8 512 49.5484C512 22.2968 489.703 0 462.452 0Z" fill="#F3960E"/>
<path d="M462.452 181.677H49.5484C22.2968 181.677 0 203.974 0 231.226C0 258.477 22.2968 280.774 49.5484 280.774H462.452C489.703 280.774 512 258.477 512 231.226C512 203.974 489.703 181.677 462.452 181.677Z" fill="#F3960E"/>
<path d="M462.452 363.355H49.5484C22.2968 363.355 0 385.652 0 412.903C0 440.155 22.2968 462.452 49.5484 462.452H462.452C489.703 462.452 512 440.155 512 412.903C512 385.652 489.703 363.355 462.452 363.355Z" fill="#F3960E"/>
</svg>
